X: 5561
T: Bury The Cabbage
R: jig
M: 6/8
K: Gmajor
dBd dBG|c2 A A2 B|cBc AFD|B2 G GBc|
dB/c/d GB/c/d|c2 A A2 B|cBc e2 d|G3- G:|
dBd gd=f|e2 c c2 e|e^de aeg|f2 d dBc|
[1 dBd gd=f|e2 c c2 e|dBG cAF|GBA G:|
[2 dB/c/d g2 f|e^cA a2 g|ff/e/d cAF|G3- G:|

